_includes/icons/ios-drag.svg

<svg fill="#666" height="50" viewBox="0 0 50 50" width="50" xmlns="http://www.w3.org/2000/svg"><path d="m25 .09375-.71875.6875-8.5 8.5c-.398437.398438-.398437 1.039063 0 1.4375.398438.398438 1.039063.398438 1.4375 0l6.78125-6.78125v20.0625h-20.0625l6.78125-6.78125c.324219-.300781.410156-.777344.214844-1.171875-.191406-.398437-.625-.617187-1.058594-.546875-.222656.023438-.433594.125-.59375.28125l-8.5 8.5-.6875.71875.6875.71875 8.5 8.5c.398438.398438 1.039063.398438 1.4375 0 .398438-.398437.398438-1.039062 0-1.4375l-6.78125-6.78125h20.0625v20.0625l-6.78125-6.78125c-.242187-.25-.597656-.355469-.9375-.28125-.375.066406-.675781.339844-.78125.703125-.105469.367188.003906.757813.28125 1.015625l8.5 8.5.71875.6875.71875-.6875 8.5-8.5c.398438-.398437.398438-1.039062 0-1.4375-.398437-.398437-1.039062-.398437-1.4375 0l-6.78125 6.78125v-20.0625h20.0625l-6.78125 6.78125c-.398437.398438-.398437 1.039063 0 1.4375.398438.398438 1.039063.398438 1.4375 0l8.5-8.5.6875-.71875-.6875-.71875-8.5-8.5c-.207031-.222656-.507812-.335937-.8125-.3125-.042969.007813-.085937.019531-.125.03125-.375.066406-.675781.339844-.78125.703125-.105469.367188.003906.757813.28125 1.015625l6.78125 6.78125h-20.0625v-20.0625l6.78125 6.78125c.398438.398438 1.039063.398438 1.4375 0 .398438-.398437.398438-1.039062 0-1.4375l-8.5-8.5z"/></svg>

<svg xmlns="http://www.w3.org/2000/svg" viewBox="0 0 50 50" width="50" height="50" fill="#666"><path d="M 25 0.09375 L 24.28125 0.78125 L 15.78125 9.28125 C 15.382813 9.679688 15.382813 10.320313 15.78125 10.71875 C 16.179688 11.117188 16.820313 11.117188 17.21875 10.71875 L 24 3.9375 L 24 24 L 3.9375 24 L 10.71875 17.21875 C 11.042969 16.917969 11.128906 16.441406 10.933594 16.046875 C 10.742188 15.648438 10.308594 15.429688 9.875 15.5 C 9.652344 15.523438 9.441406 15.625 9.28125 15.78125 L 0.78125 24.28125 L 0.09375 25 L 0.78125 25.71875 L 9.28125 34.21875 C 9.679688 34.617188 10.320313 34.617188 10.71875 34.21875 C 11.117188 33.820313 11.117188 33.179688 10.71875 32.78125 L 3.9375 26 L 24 26 L 24 46.0625 L 17.21875 39.28125 C 16.976563 39.03125 16.621094 38.925781 16.28125 39 C 15.90625 39.066406 15.605469 39.339844 15.5 39.703125 C 15.394531 40.070313 15.503906 40.460938 15.78125 40.71875 L 24.28125 49.21875 L 25 49.90625 L 25.71875 49.21875 L 34.21875 40.71875 C 34.617188 40.320313 34.617188 39.679688 34.21875 39.28125 C 33.820313 38.882813 33.179688 38.882813 32.78125 39.28125 L 26 46.0625 L 26 26 L 46.0625 26 L 39.28125 32.78125 C 38.882813 33.179688 38.882813 33.820313 39.28125 34.21875 C 39.679688 34.617188 40.320313 34.617188 40.71875 34.21875 L 49.21875 25.71875 L 49.90625 25 L 49.21875 24.28125 L 40.71875 15.78125 C 40.511719 15.558594 40.210938 15.445313 39.90625 15.46875 C 39.863281 15.476563 39.820313 15.488281 39.78125 15.5 C 39.40625 15.566406 39.105469 15.839844 39 16.203125 C 38.894531 16.570313 39.003906 16.960938 39.28125 17.21875 L 46.0625 24 L 26 24 L 26 3.9375 L 32.78125 10.71875 C 33.179688 11.117188 33.820313 11.117188 34.21875 10.71875 C 34.617188 10.320313 34.617188 9.679688 34.21875 9.28125 L 25.71875 0.78125 Z"/></svg>
